2 Export/Icons/Brands/GitHub.svg

<svg xmlns="http://www.w3.org/2000/svg" xmlns:xlink="http://www.w3.org/1999/xlink" width="24" height="24" viewBox="0 0 24 24">
  <defs>
    <path id="github-a" d="M12,3 C7.0275,3 3,7.02975 3,12 C3,15.97725 5.5785,19.35 9.15375,20.53875 C9.60375,20.6235 9.76875,20.34525 9.76875,20.106 C9.76875,19.89225 9.76125,19.326 9.7575,18.576 C7.254,19.119 6.726,17.3685 6.726,17.3685 C6.3165,16.32975 5.72475,16.05225 5.72475,16.05225 C4.9095,15.49425 5.78775,15.5055 5.78775,15.5055 C6.6915,15.5685 7.16625,16.4325 7.16625,16.4325 C7.96875,17.80875 9.273,17.41125 9.7875,17.181 C9.8685,16.599 10.10025,16.20225 10.3575,15.97725 C8.35875,15.75225 6.258,14.97825 6.258,11.52975 C6.258,10.54725 6.60675,9.74475 7.18425,9.11475 C7.083,8.8875 6.77925,7.9725 7.263,6.73275 C7.263,6.73275 8.01675,6.49125 9.738,7.65525 C10.458,7.455 11.223,7.356 11.988,7.3515 C12.753,7.356 13.518,7.455 14.238,7.65525 C15.948,6.49125 16.70175,6.73275 16.70175,6.73275 C17.1855,7.9725 16.88175,8.8875 16.79175,9.11475 C17.3655,9.74475 17.71425,10.54725 17.71425,11.52975 C17.71425,14.98725 15.6105,15.7485 13.608,15.96975 C13.923,16.23975 14.2155,16.79175 14.2155,17.63475 C14.2155,18.83925 14.20425,19.80675 14.20425,20.09925 C14.20425,20.3355 14.36175,20.61675 14.823,20.52675 C18.42375,19.34625 21,15.97125 21,12 C21,7.02975 16.97025,3 12,3"/>
  </defs>
  <g fill="none" fill-rule="evenodd">
    <polygon points="0 0 24 0 24 24 0 24"/>
    <mask id="github-b" fill="#fff">
      <use xlink:href="#github-a"/>
    </mask>
    <use fill="#000" xlink:href="#github-a"/>
    <g fill="#000" mask="url(#github-b)">
      <rect width="24" height="24"/>
    </g>
  </g>
</svg>

<svg xmlns="http://www.w3.org/2000/svg" xmlns:xlink="http://www.w3.org/1999/xlink" width="24" height="24" viewBox="0 0 24 24">
  <defs>
    <path id="github-a" d="M12 3c-4.973 0-9 4.03-9 9a8.999 8.999 0 0 0 6.154 8.539c.45.084.615-.194.615-.433 0-.214-.008-.78-.011-1.53-2.504.543-3.032-1.207-3.032-1.207-.41-1.04-1.001-1.317-1.001-1.317-.815-.558.063-.546.063-.546.903.063 1.378.927 1.378.927.803 1.376 2.107.978 2.621.748.081-.582.313-.979.57-1.204-1.998-.225-4.099-.999-4.099-4.447 0-.983.349-1.785.926-2.415-.101-.228-.405-1.143.079-2.382 0 0 .754-.242 2.475.922a8.66 8.66 0 0 1 2.25-.304 8.66 8.66 0 0 1 2.25.304c1.71-1.164 2.464-.922 2.464-.922.483 1.24.18 2.154.09 2.382.573.63.922 1.432.922 2.415 0 3.457-2.103 4.219-4.106 4.44.315.27.607.822.607 1.665 0 1.204-.01 2.172-.01 2.464 0 .236.157.518.618.428A8.969 8.969 0 0 0 21 12a9 9 0 0 0-9-9"/>
  </defs>
  <g fill="none" fill-rule="evenodd">
    <polygon points="0 0 24 0 24 24 0 24"/>
    <mask id="github-b" fill="#fff">
      <use xlink:href="#github-a"/>
    </mask>
    <use fill="#000" xlink:href="#github-a"/>
    <g fill="#000" mask="url(#github-b)">
      <rect width="24" height="24"/>
    </g>
  </g>
</svg>
